X:59
T:The King of Fairies or The Roses they smell sweetly
T:Lord Maxwell's goodnight
Z:Jack Campin - http://www.campin.me.uk
S:Blaikie MS (NLS MS.1578) p19, Blaikie #55
M:3/4
L:1/8
V:1 midi program 1 74
V:2 midi program 1 46 bass middle = d transpose -24
Q:1/4=100
K:G
[V:1] D2|GF G2 AB|cB c2 c<e|d2 B3  G|FA D2
[V:2] z2|G2 g2 g2|e4    c2| B2 G2 g2|d2 d2
%
[V:1] D2|GF G2 AB|cB c2 ce |dB G2 cB|A2 G2|]
[V:2] d2|G2 g2 g2|e4    c2 |B4    c2|d2 g2|]
W:Transcription (c) Jack Campin 2009, no mirroring or republication without permission

